public/avatar/item2/66.svg

<svg xmlns:xlink="http://www.w3.org/1999/xlink" height="99.2" width="82.2" xmlns="http://www.w3.org/2000/svg"><use height="13.8" transform="translate(20.85 69.4)" width="18.95" xlink:href="#a"/><defs><g id="a" fill-rule="evenodd"><path d="M-2.6 28.45q-.45 0-.45.15l.05.15.45.35h.3l.4-.15-.05-.2q-.15-.2-.45-.3h-.25m-2.45-.95.2-.05q.1-.25-.3-.65l-.5-.2-.2.05v.2l.3.45.5.2m-2.65-3q-.2-.15-.5-.15l-.2.05v.15l.3.45.5.2.2-.05.05-.15-.35-.5m8 4.55.4.15.3-.05.45-.35.05-.15q-.15-.15-.4-.15l-.3.05-.45.35-.05.15m3.7-1.3.35-.5-.05-.15-.15-.05-.5.2q-.25.2-.35.5l.05.15.15.05.5-.2m2.85-2.6-.2-.05-.45.2q-.35.25-.35.5v.1l.2.1q.2 0 .5-.2l.35-.5-.05-.15m-1.7-1.25q.8-.55 1.6-.55 1 0 1.55.7 1.25 1.65-.65 3.1-.7.55-1.55.55h-.05q-.15.85-.95 1.4-.7.55-1.55.55l-.5-.05q-.5.9-1.45 1.2l-.85.15q-.95 0-1.5-.55-.65.5-1.45.5l-.7-.1q-1.35-.4-1.75-1.55l-.35.05q-.9 0-1.65-.6-.75-.65-.95-1.7-.75 0-1.45-.55-.75-.55-1-1.4-.3-.95.25-1.65.55-.75 1.6-.75.9 0 1.55.5.95.75 1.05 1.75.9.1 1.6.65.6.45.85 1.25l.55-.05.7.05q.7.2 1.2.7.3-.3 1-.6l.85-.15.65.1.85-1q.7-.55 1.55-.55.25-.85.95-1.4" fill="#020000" transform="translate(10.15 -22.65)"/><path d="M2.4 28.65q-.85-1.25.55-2.3l2.4.05q.85 1.25-.55 2.3l-2.4-.05" fill="#c6c6c6" transform="translate(10.15 -22.65)"/><path d="M.5 27.5q1.7-.65 2.2.8.45 1.45-1.3 2t-2.2-.85q-.45-1.4 1.3-1.95" fill="#c6c6c6" transform="translate(10.15 -22.65)"/><path d="M-4.15 28.4q.35-1.45 2.1-1 1.75.45 1.4 1.9-.35 1.45-2.15 1-1.8-.45-1.35-1.9" fill="#c6c6c6" transform="translate(10.15 -22.65)"/><path d="M-6.75 26q1-1.15 2.35 0 1.45 1.15.5 2.3-1 1.2-2.35 0-1.45-1.15-.5-2.3" fill="#c6c6c6" transform="translate(10.15 -22.65)"/><path d="M-9.35 23.8q.9-1.25 2.35-.15 1.5 1.05.6 2.3l-2.35.1q-1.4-1.05-.6-2.25" fill="#c6c6c6" transform="translate(10.15 -22.65)"/><path d="M-6.3 26.3q-.4.55.2 1.25l-.15.7h-.05q-1.35-1.15-.45-2.3.8-.95 2.05-.15l-.5.35-1.1.15m2.7 2.2q-.15.7.7 1.05l.15.75h-.05q-1.8-.45-1.35-1.9.25-1.25 1.8-1.05l-.35.55q-.75.1-.9.6m4.4 1.3.45.6q-1.8.35-2.15-1.05-.25-1.2 1.15-1.75l-.05.65q-.65.45-.5.95.15.7 1.1.6m2.05-1.55 1.25.1.65.35-2.35-.1q-.75-1 .3-2.05l.25.6q-.45.65-.1 1.1" fill="#f9f4f4" transform="translate(10.15 -22.65)"/><path d="M4.95 26.7q-.9-1.2.55-2.3l2.35.05q.9 1.2-.55 2.3l-2.35-.05" fill="#c6c6c6" transform="translate(10.15 -22.65)"/><path d="M5.4 26.25q.4.6 1.2.15l.7.35h-.05l-2.35-.1q-.7-1 .35-2.05l.25.6q-.55.6-.1 1.05M-8.85 24.1q-.4.6.25 1.25l-.1.7h-.05q-1.4-1.05-.6-2.25.75-.95 2.05-.35l-.5.45q-.75-.25-1.05.2" fill="#f9f4f4" transform="translate(10.15 -22.65)"/><path d="m2.65 31.7.65 1.5v.5l-.35.3-1.35.35.3 1-.05.4-.35.3-1.85.4h-.1l-.3-.05L-1 36l-.2-1.05-1.05.35h-.15l-.3-.05-.25-.4-.4-1.7.1-.45.35-.25.75-.1-.15-1-.05-.1q-.1-.55.4-.7l1.5-.4h.15q.4 0 .55.35l.45 1.25L2 31.4h.1q.4 0 .55.3" fill="#020000" transform="translate(10.15 -22.65)"/><path d="m1.3 35.35-1.85.45-.35-1.7-1.6.5-.4-1.7 1.3-.2-.25-1.55-.05-.15 1.5-.45.7 1.75 1.75-.5.65 1.5-1.85.5.45 1.55" fill="#c6c6c6" transform="translate(10.15 -22.65)"/><path d="m-1.55 31.15 1.4 1-1.15.35-.25-1.35M-1.5 33l.4.8-1.2.4.8-1.2m.95 1.1 1.15-.25-.75 1.45-.4-1.2m1.65-1 .75-1.15.5 1.05-1.25.1" fill="#f9f4f4" transform="translate(10.15 -22.65)"/></g></defs></svg>

<?xml version="1.0" encoding="UTF-8" standalone="no"?>
<svg xmlns:xlink="http://www.w3.org/1999/xlink" height="99.2px" width="82.2px" xmlns="http://www.w3.org/2000/svg">
  <g transform="matrix(1.0, 0.0, 0.0, 1.0, 31.0, 46.75)">
    <use height="13.8" transform="matrix(1.0, 0.0, 0.0, 1.0, -10.15, 22.65)" width="18.95" xlink:href="#shape0"/>
  </g>
  <defs>
    <g id="shape0" transform="matrix(1.0, 0.0, 0.0, 1.0, 10.15, -22.65)">
      <path d="M-2.6 28.45 Q-3.05 28.45 -3.05 28.6 L-3.0 28.75 -2.55 29.1 -2.25 29.1 -1.85 28.95 -1.9 28.75 Q-2.05 28.55 -2.35 28.45 L-2.6 28.45 M-5.05 27.5 L-4.85 27.45 Q-4.75 27.2 -5.15 26.8 L-5.65 26.6 -5.85 26.65 -5.85 26.85 -5.55 27.3 -5.05 27.5 M-7.7 24.5 Q-7.9 24.35 -8.2 24.35 L-8.4 24.4 -8.4 24.55 -8.1 25.0 -7.6 25.2 -7.4 25.15 -7.35 25.0 -7.7 24.5 M0.3 29.05 L0.7 29.2 1.0 29.15 1.45 28.8 1.5 28.65 Q1.35 28.5 1.1 28.5 L0.8 28.55 0.35 28.9 0.3 29.05 M4.0 27.75 L4.35 27.25 4.3 27.1 4.15 27.05 3.65 27.25 Q3.4 27.45 3.3 27.75 L3.35 27.9 3.5 27.95 4.0 27.75 M6.85 25.15 L6.65 25.1 6.2 25.3 Q5.85 25.55 5.85 25.8 L5.85 25.9 6.05 26.0 Q6.25 26.0 6.55 25.8 L6.9 25.3 6.85 25.15 M5.15 23.9 Q5.95 23.35 6.75 23.35 7.75 23.35 8.3 24.05 9.55 25.7 7.65 27.15 6.95 27.7 6.1 27.7 L6.05 27.7 Q5.9 28.55 5.1 29.1 4.4 29.65 3.55 29.65 L3.05 29.6 Q2.55 30.5 1.6 30.8 L0.75 30.95 Q-0.2 30.95 -0.75 30.4 -1.4 30.9 -2.2 30.9 L-2.9 30.8 Q-4.25 30.4 -4.65 29.25 L-5.0 29.3 Q-5.9 29.3 -6.65 28.7 -7.4 28.05 -7.6 27.0 -8.35 27.0 -9.05 26.45 -9.8 25.9 -10.05 25.05 -10.35 24.1 -9.8 23.4 -9.25 22.65 -8.2 22.65 -7.3 22.65 -6.65 23.15 -5.7 23.9 -5.6 24.9 -4.7 25.0 -4.0 25.55 -3.4 26.0 -3.15 26.8 L-2.6 26.75 -1.9 26.8 Q-1.2 27.0 -0.7 27.5 -0.4 27.2 0.3 26.9 L1.15 26.75 1.8 26.85 2.65 25.85 Q3.35 25.3 4.2 25.3 4.45 24.45 5.15 23.9" fill="#020000" fill-rule="evenodd" stroke="none"/>
      <path d="M2.4 28.65 Q1.55 27.4 2.95 26.35 L5.35 26.4 Q6.2 27.65 4.8 28.7 L2.4 28.65" fill="#c6c6c6" fill-rule="evenodd" stroke="none"/>
      <path d="M0.5 27.5 Q2.2 26.85 2.7 28.3 3.15 29.75 1.4 30.3 -0.35 30.85 -0.8 29.45 -1.25 28.05 0.5 27.5" fill="#c6c6c6" fill-rule="evenodd" stroke="none"/>
      <path d="M-4.15 28.4 Q-3.8 26.95 -2.05 27.4 -0.3 27.85 -0.65 29.3 -1.0 30.75 -2.8 30.3 -4.6 29.85 -4.15 28.4" fill="#c6c6c6" fill-rule="evenodd" stroke="none"/>
      <path d="M-6.75 26.0 Q-5.75 24.85 -4.4 26.0 -2.95 27.15 -3.9 28.3 -4.9 29.5 -6.25 28.3 -7.7 27.15 -6.75 26.0" fill="#c6c6c6" fill-rule="evenodd" stroke="none"/>
      <path d="M-9.35 23.8 Q-8.45 22.55 -7.0 23.65 -5.5 24.7 -6.4 25.95 L-8.75 26.05 Q-10.15 25.0 -9.35 23.8" fill="#c6c6c6" fill-rule="evenodd" stroke="none"/>
      <path d="M-6.3 26.3 Q-6.7 26.85 -6.1 27.55 L-6.25 28.25 -6.3 28.25 Q-7.65 27.1 -6.75 25.95 -5.95 25.0 -4.7 25.8 L-5.2 26.15 -6.3 26.3" fill="#f9f4f4" fill-rule="evenodd" stroke="none"/>
      <path d="M-3.6 28.5 Q-3.75 29.2 -2.9 29.55 L-2.75 30.3 -2.8 30.3 Q-4.6 29.85 -4.15 28.4 -3.9 27.15 -2.35 27.35 L-2.7 27.9 Q-3.45 28.0 -3.6 28.5" fill="#f9f4f4" fill-rule="evenodd" stroke="none"/>
      <path d="M0.8 29.8 L1.25 30.4 Q-0.55 30.75 -0.9 29.35 -1.15 28.15 0.25 27.6 L0.2 28.25 Q-0.45 28.7 -0.3 29.2 -0.15 29.9 0.8 29.8" fill="#f9f4f4" fill-rule="evenodd" stroke="none"/>
      <path d="M2.85 28.25 L4.1 28.35 4.75 28.7 2.4 28.6 Q1.65 27.6 2.7 26.55 L2.95 27.15 Q2.5 27.8 2.85 28.25" fill="#f9f4f4" fill-rule="evenodd" stroke="none"/>
      <path d="M4.95 26.7 Q4.05 25.5 5.5 24.4 L7.85 24.45 Q8.75 25.65 7.3 26.75 L4.95 26.7" fill="#c6c6c6" fill-rule="evenodd" stroke="none"/>
      <path d="M5.4 26.25 Q5.8 26.85 6.6 26.4 L7.3 26.75 7.25 26.75 4.9 26.65 Q4.2 25.65 5.25 24.6 L5.5 25.2 Q4.95 25.8 5.4 26.25" fill="#f9f4f4" fill-rule="evenodd" stroke="none"/>
      <path d="M-8.85 24.1 Q-9.25 24.7 -8.6 25.35 L-8.7 26.05 -8.75 26.05 Q-10.15 25.0 -9.35 23.8 -8.6 22.85 -7.3 23.45 L-7.8 23.9 Q-8.55 23.65 -8.85 24.1" fill="#f9f4f4" fill-rule="evenodd" stroke="none"/>
      <path d="M2.65 31.7 L3.3 33.2 3.3 33.7 2.95 34.0 1.6 34.35 1.9 35.35 1.85 35.75 1.5 36.05 -0.35 36.45 -0.45 36.45 -0.75 36.4 -1.0 36.0 -1.2 34.95 -2.25 35.3 -2.4 35.3 -2.7 35.25 -2.95 34.85 -3.35 33.15 -3.25 32.7 -2.9 32.45 -2.15 32.35 -2.3 31.35 -2.35 31.25 Q-2.45 30.7 -1.95 30.55 L-0.45 30.15 -0.3 30.15 Q0.1 30.15 0.25 30.5 L0.7 31.75 2.0 31.4 2.1 31.4 Q2.5 31.4 2.65 31.7" fill="#020000" fill-rule="evenodd" stroke="none"/>
      <path d="M1.3 35.35 L-0.55 35.8 -0.9 34.1 -2.5 34.6 -2.9 32.9 -1.6 32.7 -1.85 31.15 -1.9 31.0 -0.4 30.55 0.3 32.3 2.05 31.8 2.7 33.3 0.85 33.8 1.3 35.35" fill="#c6c6c6" fill-rule="evenodd" stroke="none"/>
      <path d="M-1.55 31.15 L-0.15 32.15 -1.3 32.5 -1.55 31.15" fill="#f9f4f4" fill-rule="evenodd" stroke="none"/>
      <path d="M-1.5 33.0 L-1.1 33.8 -2.3 34.2 -1.5 33.0" fill="#f9f4f4" fill-rule="evenodd" stroke="none"/>
      <path d="M-0.55 34.1 L0.6 33.85 -0.15 35.3 -0.55 34.1" fill="#f9f4f4" fill-rule="evenodd" stroke="none"/>
      <path d="M1.1 33.1 L1.85 31.95 2.35 33.0 1.1 33.1" fill="#f9f4f4" fill-rule="evenodd" stroke="none"/>
    </g>
  </defs>
</svg>
